X:1
T:Partita III Scherzo
T:BWV 827
T:J. S. Bach
%%score { 1 | 2 }
L:1/8
M:2/4
K:C
V:1 treble nm="Harp"
V:2 bass 
V:1
 e/c/A- | A^G/A/ B/c/d/B/ | d/c/B/A/ e/d/c/B/ | A/E/A/c/ B/E/B/d/ | c/e/c/A/ c/A/G/F/ | %5
 E/G/A/B/ c/F/E/D/ | C/G/A/B/ c/B/c/A/ | c/B/c/G/ c/B/c/F/ | E/G/A/B/ c/d/e- | e/d/e/f/ e/d/c/B/ | %10
 A/G/A/B/ c/d/e/f/ | gc e/d/c/B/ | c/4B/4c3/2 e/c/A- | A^G/A/ B/c/d/B/ | d/c/B/A/ e/d/c/B/ | %15
 A/E/A/c/ B/E/B/d/ | c/e/c/A/ c/A/G/F/ | E/G/A/B/ c/F/E/D/ | C/G/A/B/ c/B/c/A/ | %19
 c/B/c/G/ c/B/c/F/ | E/G/A/B/ c/d/e- | e/d/e/f/ e/d/c/B/ | A/G/A/B/ c/d/e/f/ | gc e/d/c/B/ | %24
 c/4B/4c3/2 g/e/c- | cB/c/ d/e/f/d/ | f/e/d/c/ a/f/d- | d^c/d/ e/f/g/e/ | g/f/e/d/ _b/c'/b/g/ | %29
 a/d'/a/f/ g/a/g/e/ | f/d'/f/d/ _e/_b/g/e/ | ^c/A/a e/4d/4c/4d/4e/c/ | d/4^c/4d3/2 f/d/A- | %33
 AB/c/ d/e/f/d/ | c/B/A/G/ e/c/^G- | GA/B/ c/d/e/c/ | B/A/^G/A/ d/F/E/D/ | d/^G/^F/E/ d/B/A/G/ | %38
 d/c/B/f/ e/d/c/B/ | c/B/d/c/ B/A/^G/A/ | B/^G/^F/E/ e/c/A- | A^G/A/ B/c/d/e/ | f/e/d/f/ e/d/c/B/ | %43
 c/d/e/A/ c/B/A/^G/ | A/4^G/4A3/2 g/e/c- | cB/c/ d/e/f/d/ | f/e/d/c/ a/f/d- | d^c/d/ e/f/g/e/ | %48
 g/f/e/d/ _b/c'/b/g/ | a/d'/a/f/ g/a/g/e/ | f/d'/f/d/ _e/_b/g/e/ | ^c/A/a e/4d/4c/4d/4e/c/ | %52
 d/4^c/4d3/2 f/d/A- | AB/c/ d/e/f/d/ | c/B/A/G/ e/c/^G- | GA/B/ c/d/e/c/ | B/A/^G/A/ d/F/E/D/ | %57
 d/^G/^F/E/ d/B/A/G/ | d/c/B/f/ e/d/c/B/ | c/B/d/c/ B/A/^G/A/ | B/^G/^F/E/ e/c/A- | %61
 A^G/A/ B/c/d/e/ | f/e/d/f/ e/d/c/B/ | c/d/e/A/ c/B/A/^G/ | A/4^G/4!fermata!A3/2 z2 |] %65
V:2
 [A,,C,E,A,] z | [C,E,A,] z [E,^G,] z | A, z [A,,C,E,A,] z | [C,E,A,] z [E,^G,] z | A, z A,,A, | %5
 G,G,, F,,F, | E,E,, A,,F, | E,G,, F,,D, | C,E,, G,,C, | F,,A,, D,F,- | %10
 F,/E,/D,/C,/ B,,/A,,/G,,/F,,/ | E,,A,, F,,G,, | C,,2 [A,,C,E,A,] z | [C,E,A,] z [E,^G,] z | %14
 A, z [A,,C,E,A,] z | [C,E,A,] z [E,^G,] z | A, z A,,A, | G,G,, F,,F, | E,E,, A,,F, | E,G,, F,,D, | %20
 C,E,, G,,C, | F,,A,, D,F,- | F,/E,/D,/C,/ B,,/A,,/G,,/F,,/ | E,,A,, F,,G,, | C,,2 [C,E,G,C] z | %25
 [E,G,C] z [G,B,] z | C z [F,A,D] z | [G,_B,] z [^C,E,A,] z | [D,A,] z DD, | C,C _B,_B,, | %30
 A,,A, G,G,,- | G,,/E,/F,/G,/ A,A,, | D,/A,,/F,,/A,,/ D,,F,,/A,,/ | D,C, B,,A,, | %34
 G,,A,,/B,,/ C,/D,/E,/C,/ | F,E, D,C, | D,C, B,,A,, | B,,A,, ^G,,^F,, | ^G,,E, ^F,^G, | A,F, D,F, | %40
 E,D, [C,E,^G,A,] z | [B,,D,F,B,] z [A,,B,,D,F,] z | [^G,,B,,^^C,]/A,,/B,,/^B,,/ C,/E,/^F,/^G,/ | %43
 A,C, D,E, | A,,2 [C,E,G,C] z | [E,G,C] z [G,B,] z | C z [F,A,D] z | [G,_B,] z [^C,E,A,] z | %48
 [D,A,] z DD, | C,C _B,_B,, | A,,A, G,G,,- | G,,/E,/F,/G,/ A,A,, | D,/A,,/F,,/A,,/ D,,F,,/A,,/ | %53
 D,C, B,,A,, | G,,A,,/B,,/ C,/D,/E,/C,/ | F,E, D,C, | D,C, B,,A,, | B,,A,, ^G,,^F,, | %58
 ^G,,E, ^F,^G, | A,F, D,F, | E,D, [C,E,^G,A,] z | [B,,D,F,B,] z [A,,B,,D,F,] z | %62
 [^G,,B,,^^C,]/A,,/B,,/^B,,/ C,/E,/^F,/^G,/ | A,C, D,E, | !fermata!A,,2 z2 |] %65

